usr/share/icons/biglinux-icons-material/scalable/apps/gtick.svg

<?xml version="1.0" encoding="UTF-8" standalone="no"?>
<svg
   width="24"
   height="24"
   viewBox="0 0 24 24"
   fill="none"
   version="1.1"
   id="svg154"
   sodipodi:docname="net.bartkessels.advancedmetronome.svg"
   inkscape:version="1.3 (0e150ed6c4, 2023-07-21)"
   xml:space="preserve"
   xmlns:inkscape="http://www.inkscape.org/namespaces/inkscape"
   xmlns:sodipodi="http://sodipodi.sourceforge.net/DTD/sodipodi-0.dtd"
   xmlns:xlink="http://www.w3.org/1999/xlink"
   xmlns="http://www.w3.org/2000/svg"
   xmlns:svg="http://www.w3.org/2000/svg"><sodipodi:namedview
     id="namedview156"
     pagecolor="#ffffff"
     bordercolor="#000000"
     borderopacity="1"
     inkscape:showpageshadow="0"
     inkscape:pageopacity="1"
     inkscape:pagecheckerboard="false"
     inkscape:deskcolor="#ffffff"
     showgrid="true"
     inkscape:zoom="11.313709"
     inkscape:cx="16.83798"
     inkscape:cy="16.484427"
     inkscape:window-width="2560"
     inkscape:window-height="998"
     inkscape:window-x="0"
     inkscape:window-y="0"
     inkscape:window-maximized="1"
     inkscape:current-layer="svg154"
     showguides="true"
     guidecolor="#ff0000"
     guideopacity="1"
     inkscape:lockguides="true"
     showborder="true"
     borderlayer="true"><inkscape:grid
       type="xygrid"
       id="grid356"
       color="#000000"
       opacity="0.10196078"
       empcolor="#000000"
       empopacity="0.10196078"
       snapvisiblegridlinesonly="true"
       enabled="true"
       visible="true"
       dotted="false"
       originx="0"
       originy="0"
       spacingy="1"
       spacingx="1"
       units="px" /><sodipodi:guide
       position="4,12"
       orientation="-1,0"
       id="guide764"
       inkscape:locked="true"
       inkscape:label="left-circle"
       inkscape:color="rgb(255,0,0)" /><sodipodi:guide
       position="5,12"
       orientation="-1,0"
       id="guide2218"
       inkscape:locked="true"
       inkscape:label="left-square"
       inkscape:color="rgb(255,0,0)" /><sodipodi:guide
       position="12,20"
       orientation="0,1"
       id="guide2220"
       inkscape:locked="true"
       inkscape:label="top-circle"
       inkscape:color="rgb(255,0,0)" /><sodipodi:guide
       position="12,5"
       orientation="0,1"
       id="guide2222"
       inkscape:locked="true"
       inkscape:label="bottom-square"
       inkscape:color="rgb(255,0,0)" /><sodipodi:guide
       position="12,4"
       orientation="0,1"
       id="guide2224"
       inkscape:locked="true"
       inkscape:label="bottom-circle"
       inkscape:color="rgb(255,0,0)" /><sodipodi:guide
       position="19,12"
       orientation="-1,0"
       id="guide2226"
       inkscape:locked="true"
       inkscape:label="right-square"
       inkscape:color="rgb(255,0,0)" /><sodipodi:guide
       position="20,12"
       orientation="-1,0"
       id="guide2228"
       inkscape:locked="true"
       inkscape:label="right-circle"
       inkscape:color="rgb(255,0,0)" /><sodipodi:guide
       position="12,19"
       orientation="0,1"
       id="guide2230"
       inkscape:locked="true"
       inkscape:label="top-square"
       inkscape:color="rgb(255,0,0)" /><sodipodi:guide
       position="12,12"
       orientation="1,0"
       id="guide765"
       inkscape:locked="true" /><sodipodi:guide
       position="12,12"
       orientation="0,-1"
       id="guide767"
       inkscape:locked="true" /><sodipodi:guide
       position="12,12"
       orientation="0.70710678,0.70710678"
       id="guide2266"
       inkscape:locked="true"
       inkscape:label=""
       inkscape:color="rgb(255,0,0)" /><sodipodi:guide
       position="12,12"
       orientation="-0.70710678,0.70710678"
       id="guide2994"
       inkscape:locked="true"
       inkscape:label=""
       inkscape:color="rgb(255,0,0)" /><sodipodi:guide
       position="3,12"
       orientation="-1,0"
       id="guide131543"
       inkscape:locked="true"
       inkscape:label="left-horizontal"
       inkscape:color="rgb(255,0,0)" /><sodipodi:guide
       position="12,21"
       orientation="0,1"
       id="guide131545"
       inkscape:locked="true"
       inkscape:label="top-vertical"
       inkscape:color="rgb(255,0,0)" /><sodipodi:guide
       position="21,12"
       orientation="-1,0"
       id="guide131547"
       inkscape:locked="true"
       inkscape:label="right-horizontal"
       inkscape:color="rgb(255,0,0)" /><sodipodi:guide
       position="12,3"
       orientation="0,1"
       id="guide131549"
       inkscape:locked="true"
       inkscape:label="bottom-vertical"
       inkscape:color="rgb(255,0,0)" /><inkscape:page
       x="0"
       y="0"
       width="24"
       height="24"
       id="page1"
       margin="0"
       bleed="0" /></sodipodi:namedview><defs
     id="defs152"><radialGradient
       id="radialGradient66380"
       cx="0"
       cy="0"
       r="1"
       gradientUnits="userSpaceOnUse"
       gradientTransform="matrix(0,22,-22,0,12,1)"><stop
         stop-color="#8FC8FF"
         id="stop66376"
         offset="0"
         style="stop-color:#68a8f5;stop-opacity:1;" /><stop
         offset="1"
         stop-color="#0056A8"
         id="stop66378"
         style="stop-color:#cccccc;stop-opacity:1;" /></radialGradient><radialGradient
       id="paint0_radial_29_23"
       cx="0"
       cy="0"
       r="1"
       gradientUnits="userSpaceOnUse"
       gradientTransform="matrix(0,22,-22,0,12,1)"><stop
         stop-color="#8FC8FF"
         id="stop147"
         offset="0"
         style="stop-color:#f6f6f6;stop-opacity:1;" /><stop
         offset="1"
         stop-color="#0056A8"
         id="stop149"
         style="stop-color:#cfcfcf;stop-opacity:1;" /></radialGradient><radialGradient
       id="paint0_radial_10_2"
       cx="0"
       cy="0"
       r="1"
       gradientUnits="userSpaceOnUse"
       gradientTransform="matrix(-10.999959,21.999967,-21.999967,-10.999959,17.5,1)"
       xlink:href="#paint0_radial_29_23"><stop
         stop-color="#777777"
         id="stop2847" /><stop
         offset="1"
         stop-color="#222222"
         id="stop2849" /></radialGradient><radialGradient
       fx="0"
       fy="0"
       cx="0"
       cy="0"
       r="1"
       gradientUnits="userSpaceOnUse"
       gradientTransform="matrix(0,16.5,-16.5,0,8.999996,0.750012)"
       spreadMethod="pad"
       id="radialGradient3666-6"><stop
         style="stop-color:#ffffff;stop-opacity:1;"
         offset="0"
         id="stop3662-7" /><stop
         style="stop-color:#6a7cf1;stop-opacity:1;"
         offset="1"
         id="stop3664-5" /></radialGradient><linearGradient
       id="a"
       x2="0"
       y1="1"
       y2="47"
       gradientTransform="matrix(1.1739,0,0,1.1739,3.826,3.826)"
       gradientUnits="userSpaceOnUse"><stop
         stop-color="#9584f4"
         offset="0"
         id="stop76422" /><stop
         stop-color="#8471f2"
         offset="1"
         id="stop76424" /></linearGradient><linearGradient
       id="a-5"
       x1="7.9000001"
       x2="56.169998"
       y1="19.867001"
       y2="19.867001"
       gradientUnits="userSpaceOnUse"><stop
         stop-color="#fff"
         stop-opacity=".454"
         offset="0"
         id="stop101157" /><stop
         stop-color="#fff"
         stop-opacity=".276"
         offset="1"
         id="stop101159" /></linearGradient><linearGradient
       id="a-8"
       x1="7.9000001"
       x2="56.169998"
       y1="19.867001"
       y2="19.867001"
       gradientUnits="userSpaceOnUse"
       gradientTransform="matrix(2.1160451,0,0,2.1160451,375.1947,70.77275)"><stop
         stop-color="#fff"
         stop-opacity=".454"
         offset="0"
         id="stop3218" /><stop
         stop-color="#fff"
         stop-opacity=".276"
         offset="1"
         id="stop3220" /></linearGradient><linearGradient
       x1="12"
       y1="66.125"
       x2="12.4375"
       y2="-2.1875"
       gradientUnits="userSpaceOnUse"
       gradientTransform="matrix(0.24444399,0,0,0.24444399,33.777777,-0.22222266)"
       spreadMethod="pad"
       id="linearGradient2-1"><stop
         style="stop-opacity:1;stop-color:#ef8e30"
         offset="0"
         id="stop1" /><stop
         style="stop-opacity:1;stop-color:#fab680"
         offset="1"
         id="stop2" /></linearGradient><linearGradient
       x1="7.9000001"
       y1="19.867001"
       x2="56.169998"
       y2="19.867001"
       gradientUnits="userSpaceOnUse"
       gradientTransform="matrix(0.239754,0,0,0.239754,1.31939,1.831497)"
       spreadMethod="pad"
       id="linearGradient6"><stop
         style="stop-opacity:0.45400168;stop-color:#ffffff"
         offset="0"
         id="stop5" /><stop
         style="stop-opacity:0.27598993;stop-color:#ffffff"
         offset="1"
         id="stop6" /></linearGradient><linearGradient
       inkscape:collect="always"
       xlink:href="#linearGradient6"
       id="linearGradient9"
       gradientUnits="userSpaceOnUse"
       gradientTransform="matrix(0.31967199,0,0,0.31967199,35.759187,2.4419959)"
       x1="7.9000001"
       y1="19.867001"
       x2="56.169998"
       y2="19.867001"
       spreadMethod="pad" /><linearGradient
       inkscape:collect="always"
       xlink:href="#linearGradient6"
       id="linearGradient4"
       gradientUnits="userSpaceOnUse"
       gradientTransform="matrix(0.31967199,0,0,0.31967199,35.759187,2.4419959)"
       x1="7.9000001"
       y1="19.867001"
       x2="56.169998"
       y2="19.867001"
       spreadMethod="pad" /><linearGradient
       inkscape:collect="always"
       xlink:href="#linearGradient6"
       id="linearGradient5"
       gradientUnits="userSpaceOnUse"
       gradientTransform="matrix(0.31967199,0,0,0.31967199,35.759187,2.4419959)"
       x1="7.9000001"
       y1="19.867001"
       x2="56.169998"
       y2="19.867001"
       spreadMethod="pad" /></defs><g
     id="g1"
     inkscape:groupmode="layer"
     inkscape:label="1"
     transform="translate(34)" /><g
     id="g5"
     transform="translate(-34)"><path
       id="path2"
       d="M 46,0.99999997 C 36,0.99999997 35,5.9999998 35,12 35,20 38,22.999999 46,22.999999 54,22.999999 56.999999,20 56.999999,12 c 0,-6.0000002 -1,-11.00000003 -10.999999,-11.00000003 z"
       style="fill:url(#linearGradient2-1);stroke:none;stroke-width:1.33333" /><path
       d="m 45.978666,4.9479999 c -2.118666,0.00533 -3.932,0.76 -5.431999,2.2599999 h -0.0053 c -0.0053,0.00533 -0.01067,0.016 -0.01467,0.021333 C 39.036,8.7239998 38.292,10.526666 38.286667,12.636 H 40.74 c 0.0093,-1.428 0.514666,-2.6520002 1.52,-3.6720002 l 0.02133,-0.021333 C 43.302666,7.9213331 44.536,7.4119998 45.978666,7.4066665 Z m 0,0 V 7.4066665 H 46 c 1.432,0 2.656,0.5 3.677333,1.4999999 l 0.04133,0.036 C 50.74,9.9639998 51.250666,11.197333 51.26,12.636 h 2.453333 c -0.0053,-2.114667 -0.754667,-3.9280002 -2.26,-5.4280002 L 51.416,7.1666665 C 49.917333,5.6879999 48.109333,4.9479999 46,4.9479999 Z"
       style="fill:url(#linearGradient4);stroke:none;stroke-width:1.33333"
       opacity="1"
       id="path6-0" /><path
       id="path7"
       d="m 49.088,3.6199999 -4.285334,9.2813331 0.984,1.181333 1.568,-0.254666 z"
       style="fill:#e6e6e6;fill-opacity:1;fill-rule:nonzero;stroke:none;stroke-width:1.33333" /><path
       id="path8"
       d="m 45.973333,10.792 c -0.312,0 -0.604,0.05733 -0.869333,0.172 -0.265334,0.109333 -0.510667,0.276 -0.713334,0.484 -0.302666,0.301333 -0.5,0.650666 -0.593333,1.041333 C 43.76,12.666666 43.74,12.844 43.74,13.026666 c 0,0.296 0.04667,0.566667 0.145333,0.822667 C 44,14.136 44.172,14.390666 44.390666,14.604 c 0.437334,0.437333 0.964,0.656 1.582667,0.656 0.614667,0 1.141333,-0.218667 1.578667,-0.656 0.437333,-0.432 0.656,-0.958667 0.656,-1.577334 0,-0.6 -0.208,-1.114666 -0.62,-1.542666 l -0.036,-0.036 c -0.150667,-0.150667 -0.322667,-0.281334 -0.510667,-0.390667 -0.04667,-0.02667 -0.09867,-0.052 -0.150667,-0.07333 -0.281333,-0.129334 -0.584,-0.192 -0.917333,-0.192 z"
       style="fill:#ffffff;fill-opacity:1;fill-rule:nonzero;stroke:none;stroke-width:1.33333" /><path
       d="m 45.978666,4.9479999 c -2.118666,0.00533 -3.932,0.76 -5.431999,2.2599999 h -0.0053 c -0.0053,0.00533 -0.01067,0.016 -0.01467,0.021333 C 39.036,8.7239998 38.292,10.526666 38.286667,12.636 H 40.74 c 0.0093,-1.428 0.514666,-2.6520002 1.52,-3.6720002 l 0.02133,-0.021333 C 43.302666,7.9213331 44.536,7.4119998 45.978666,7.4066665 Z m 0,0 V 7.4066665 H 46 c 1.432,0 2.656,0.5 3.677333,1.4999999 l 0.04133,0.036 C 50.74,9.9639998 51.250666,11.197333 51.26,12.636 h 2.453333 c -0.0053,-2.114667 -0.754667,-3.9280002 -2.26,-5.4280002 L 51.416,7.1666665 C 49.917333,5.6879999 48.109333,4.9479999 46,4.9479999 Z"
       style="fill:url(#linearGradient5);stroke:none;stroke-width:1.33333"
       opacity="1"
       id="path11" /><path
       id="path12"
       d="m 49.088,3.6199999 -4.285334,9.2813331 0.984,1.181333 1.568,-0.254666 z"
       style="fill:#e6e6e6;fill-opacity:1;fill-rule:nonzero;stroke:none;stroke-width:1.33333" /><path
       id="path13"
       d="m 45.973333,10.792 c -0.312,0 -0.604,0.05733 -0.869333,0.172 -0.265334,0.109333 -0.510667,0.276 -0.713334,0.484 -0.302666,0.301333 -0.5,0.650666 -0.593333,1.041333 C 43.76,12.666666 43.74,12.844 43.74,13.026666 c 0,0.296 0.04667,0.566667 0.145333,0.822667 C 44,14.136 44.172,14.390666 44.390666,14.604 c 0.437334,0.437333 0.964,0.656 1.582667,0.656 0.614667,0 1.141333,-0.218667 1.578667,-0.656 0.437333,-0.432 0.656,-0.958667 0.656,-1.577334 0,-0.6 -0.208,-1.114666 -0.62,-1.542666 l -0.036,-0.036 c -0.150667,-0.150667 -0.322667,-0.281334 -0.510667,-0.390667 -0.04667,-0.02667 -0.09867,-0.052 -0.150667,-0.07333 -0.281333,-0.129334 -0.584,-0.192 -0.917333,-0.192 z"
       style="fill:#ffffff;fill-opacity:1;fill-rule:nonzero;stroke:none;stroke-width:1.33333" /><path
       d="m 45.978666,4.9479999 c -2.118666,0.00533 -3.932,0.76 -5.431999,2.2599999 h -0.0053 c -0.0053,0.00533 -0.01067,0.016 -0.01467,0.021333 C 39.036,8.7239998 38.292,10.526666 38.286667,12.636 H 40.74 c 0.0093,-1.428 0.514666,-2.6520002 1.52,-3.6720002 l 0.02133,-0.021333 C 43.302666,7.9213331 44.536,7.4119998 45.978666,7.4066665 Z m 0,0 V 7.4066665 H 46 c 1.432,0 2.656,0.5 3.677333,1.4999999 l 0.04133,0.036 C 50.74,9.9639998 51.250666,11.197333 51.26,12.636 h 2.453333 c -0.0053,-2.114667 -0.754667,-3.9280002 -2.26,-5.4280002 L 51.416,7.1666665 C 49.917333,5.6879999 48.109333,4.9479999 46,4.9479999 Z"
       style="fill:url(#linearGradient9);stroke:none;stroke-width:1.33333"
       opacity="1"
       id="path16" /><path
       id="path17"
       d="m 49.088,3.6199999 -4.285334,9.2813331 0.984,1.181333 1.568,-0.254666 z"
       style="fill:#e6e6e6;fill-opacity:1;fill-rule:nonzero;stroke:none;stroke-width:1.33333" /><path
       id="path18"
       d="m 45.973333,10.792 c -0.312,0 -0.604,0.05733 -0.869333,0.172 -0.265334,0.109333 -0.510667,0.276 -0.713334,0.484 -0.302666,0.301333 -0.5,0.650666 -0.593333,1.041333 C 43.76,12.666666 43.74,12.844 43.74,13.026666 c 0,0.296 0.04667,0.566667 0.145333,0.822667 C 44,14.136 44.172,14.390666 44.390666,14.604 c 0.437334,0.437333 0.964,0.656 1.582667,0.656 0.614667,0 1.141333,-0.218667 1.578667,-0.656 0.437333,-0.432 0.656,-0.958667 0.656,-1.577334 0,-0.6 -0.208,-1.114666 -0.62,-1.542666 l -0.036,-0.036 c -0.150667,-0.150667 -0.322667,-0.281334 -0.510667,-0.390667 -0.04667,-0.02667 -0.09867,-0.052 -0.150667,-0.07333 -0.281333,-0.129334 -0.584,-0.192 -0.917333,-0.192 z"
       style="fill:#ffffff;fill-opacity:1;fill-rule:nonzero;stroke:none;stroke-width:1.33333" /></g></svg>

<svg xmlns="http://www.w3.org/2000/svg" xmlns:xlink="http://www.w3.org/1999/xlink" xml:space="preserve" width="24" height="24" fill="none"><defs><linearGradient id="c" x1="12" x2="12.438" y1="66.125" y2="-2.188" gradientTransform="matrix(.24444 0 0 .24444 33.778 -.222)" gradientUnits="userSpaceOnUse" spreadMethod="pad"><stop offset="0" style="stop-opacity:1;stop-color:#ef8e30"/><stop offset="1" style="stop-opacity:1;stop-color:#fab680"/></linearGradient><linearGradient id="b" x1="7.9" x2="56.17" y1="19.867" y2="19.867" gradientTransform="matrix(.23975 0 0 .23975 1.32 1.831)" gradientUnits="userSpaceOnUse" spreadMethod="pad"><stop offset="0" style="stop-opacity:.45400168;stop-color:#fff"/><stop offset="1" style="stop-opacity:.27598993;stop-color:#fff"/></linearGradient><linearGradient xlink:href="#b" id="f" x1="7.9" x2="56.17" y1="19.867" y2="19.867" gradientTransform="translate(35.76 2.442) scale(.31967)" gradientUnits="userSpaceOnUse" spreadMethod="pad"/><linearGradient xlink:href="#b" id="d" x1="7.9" x2="56.17" y1="19.867" y2="19.867" gradientTransform="translate(35.76 2.442) scale(.31967)" gradientUnits="userSpaceOnUse" spreadMethod="pad"/><linearGradient xlink:href="#b" id="e" x1="7.9" x2="56.17" y1="19.867" y2="19.867" gradientTransform="translate(35.76 2.442) scale(.31967)" gradientUnits="userSpaceOnUse" spreadMethod="pad"/><radialGradient id="a" cx="0" cy="0" r="1" gradientTransform="matrix(0 22 -22 0 12 1)" gradientUnits="userSpaceOnUse"><stop offset="0" stop-color="#8FC8FF" style="stop-color:#f6f6f6;stop-opacity:1"/><stop offset="1" stop-color="#0056A8" style="stop-color:#cfcfcf;stop-opacity:1"/></radialGradient></defs><path d="M46 1C36 1 35 6 35 12c0 8 3 11 11 11s11-3 11-11c0-6-1-11-11-11z" style="fill:url(#c);stroke:none;stroke-width:1.33333" transform="translate(-34)"/><path d="M45.979 4.948c-2.119.005-3.932.76-5.432 2.26h-.006c-.005.005-.01.016-.014.021-1.491 1.495-2.235 3.298-2.24 5.407h2.453c.01-1.428.515-2.652 1.52-3.672l.021-.021c1.022-1.022 2.255-1.531 3.698-1.536Zm0 0v2.459H46c1.432 0 2.656.5 3.677 1.5l.042.036c1.021 1.021 1.532 2.254 1.541 3.693h2.453c-.005-2.115-.754-3.928-2.26-5.428l-.037-.041C49.917 5.688 48.109 4.948 46 4.948Z" style="fill:url(#d);stroke:none;stroke-width:1.33333" transform="translate(-34)"/><path d="m49.088 3.62-4.285 9.281.984 1.182 1.568-.255z" style="fill:#e6e6e6;fill-opacity:1;fill-rule:nonzero;stroke:none;stroke-width:1.33333" transform="translate(-34)"/><path d="M45.973 10.792c-.312 0-.604.057-.869.172-.265.11-.51.276-.713.484-.303.301-.5.65-.594 1.041a2.59 2.59 0 0 0-.057.538c0 .296.047.566.145.822.115.287.287.542.506.755.437.437.964.656 1.582.656.615 0 1.142-.219 1.579-.656.437-.432.656-.959.656-1.577 0-.6-.208-1.115-.62-1.543l-.036-.036a2.493 2.493 0 0 0-.51-.39 2.158 2.158 0 0 0-1.068-.265z" style="fill:#fff;fill-opacity:1;fill-rule:nonzero;stroke:none;stroke-width:1.33333" transform="translate(-34)"/><path d="M45.979 4.948c-2.119.005-3.932.76-5.432 2.26h-.006c-.005.005-.01.016-.014.021-1.491 1.495-2.235 3.298-2.24 5.407h2.453c.01-1.428.515-2.652 1.52-3.672l.021-.021c1.022-1.022 2.255-1.531 3.698-1.536Zm0 0v2.459H46c1.432 0 2.656.5 3.677 1.5l.042.036c1.021 1.021 1.532 2.254 1.541 3.693h2.453c-.005-2.115-.754-3.928-2.26-5.428l-.037-.041C49.917 5.688 48.109 4.948 46 4.948Z" style="fill:url(#e);stroke:none;stroke-width:1.33333" transform="translate(-34)"/><path d="m49.088 3.62-4.285 9.281.984 1.182 1.568-.255z" style="fill:#e6e6e6;fill-opacity:1;fill-rule:nonzero;stroke:none;stroke-width:1.33333" transform="translate(-34)"/><path d="M45.973 10.792c-.312 0-.604.057-.869.172-.265.11-.51.276-.713.484-.303.301-.5.65-.594 1.041a2.59 2.59 0 0 0-.057.538c0 .296.047.566.145.822.115.287.287.542.506.755.437.437.964.656 1.582.656.615 0 1.142-.219 1.579-.656.437-.432.656-.959.656-1.577 0-.6-.208-1.115-.62-1.543l-.036-.036a2.493 2.493 0 0 0-.51-.39 2.158 2.158 0 0 0-1.068-.265z" style="fill:#fff;fill-opacity:1;fill-rule:nonzero;stroke:none;stroke-width:1.33333" transform="translate(-34)"/><path d="M45.979 4.948c-2.119.005-3.932.76-5.432 2.26h-.006c-.005.005-.01.016-.014.021-1.491 1.495-2.235 3.298-2.24 5.407h2.453c.01-1.428.515-2.652 1.52-3.672l.021-.021c1.022-1.022 2.255-1.531 3.698-1.536Zm0 0v2.459H46c1.432 0 2.656.5 3.677 1.5l.042.036c1.021 1.021 1.532 2.254 1.541 3.693h2.453c-.005-2.115-.754-3.928-2.26-5.428l-.037-.041C49.917 5.688 48.109 4.948 46 4.948Z" style="fill:url(#f);stroke:none;stroke-width:1.33333" transform="translate(-34)"/><path d="m49.088 3.62-4.285 9.281.984 1.182 1.568-.255z" style="fill:#e6e6e6;fill-opacity:1;fill-rule:nonzero;stroke:none;stroke-width:1.33333" transform="translate(-34)"/><path d="M45.973 10.792c-.312 0-.604.057-.869.172-.265.11-.51.276-.713.484-.303.301-.5.65-.594 1.041a2.59 2.59 0 0 0-.057.538c0 .296.047.566.145.822.115.287.287.542.506.755.437.437.964.656 1.582.656.615 0 1.142-.219 1.579-.656.437-.432.656-.959.656-1.577 0-.6-.208-1.115-.62-1.543l-.036-.036a2.493 2.493 0 0 0-.51-.39 2.158 2.158 0 0 0-1.068-.265z" style="fill:#fff;fill-opacity:1;fill-rule:nonzero;stroke:none;stroke-width:1.33333" transform="translate(-34)"/></svg>
